material/.icons/material/television-pause.svg

<svg xmlns="http://www.w3.org/2000/svg" viewBox="0 0 24 24"><path d="M3 3c-1.11 0-2 .89-2 2v12c0 1.1.9 2 2 2h5v2h8v-2h5c1.1 0 2-.9 2-2V5a2 2 0 00-2-2M3 5h18v12H3m6-9v6h2V8m2 0v6h2V8"/></svg>

<?xml version="1.0" encoding="UTF-8"?><!DOCTYPE svg PUBLIC "-//W3C//DTD SVG 1.1//EN" "http://www.w3.org/Graphics/SVG/1.1/DTD/svg11.dtd"><svg xmlns="http://www.w3.org/2000/svg" xmlns:xlink="http://www.w3.org/1999/xlink" version="1.1" id="mdi-television-pause" width="24" height="24" viewBox="0 0 24 24"><path d="M3 3C1.89 3 1 3.89 1 5V17C1 18.1 1.9 19 3 19H8V21H16V19H21C22.1 19 23 18.1 23 17V5C23 3.89 22.1 3 21 3M3 5H21V17H3M9 8V14H11V8M13 8V14H15V8" /></svg>
